X:1
T:Der Doppelgänger
T:Franz Schubert (1797-1828)
T:Heinrich Heine (1821-1881)
T:Der Doppelgänger
T:Reformatted by Robert Nottingham (RobertNottingham6@Hotmail.com) Edition may be freely distributed, duplicated, performed, or recorded.
T:Reformatted by Robert Nottingham (RobertNottingham6@Hotmail.com) Edition may be freely distributed, duplicated, performed, or recorded.
T:Reformatted by Robert Nottingham (RobertNottingham6@Hotmail.com) Edition may be freely distributed, duplicated, performed, or recorded.
T:Reformatted by Robert Nottingham (RobertNottingham6@Hotmail.com) Edition may be freely distributed, duplicated, performed, or recorded.
T:Reformatted by Robert Nottingham (RobertNottingham6@Hotmail.com) Edition may be freely distributed, duplicated, performed, or recorded.
C:Franz Schubert
C:(1797-1828)
Z:Heinrich Heine
Z:(1821-1881)
Z:Reformatted by Robert Nottingham (RobertNottingham6@Hotmail.com)
Z:Edition may be freely distributed, duplicated, performed, or recorded.
%%score 1 { ( 2 4 ) | ( 3 5 ) }
L:1/8
Q:1/4=60
M:3/4
K:D
V:1 treble-8 transpose=-12 nm="Tenor"
V:2 bass nm="Piano"
V:4 bass 
V:3 bass 
V:5 bass 
V:1
"^Sehr langsam" z6 | z6 | z6 | z6 | z2 F2 F>F | F6 | z3/2 F/ F2 D>B, | F2 F2 z2 | %8
w: ||||Still ist die|Nacht,|es ru- hen die|Gas- sen,|
 z F (F3/2G/4F/4) (ED) | (C>F) F2 z2 | F7/2 F/ (A>G) | F4 z2 | z6 | z6 | z3/2 F/ F3 F | %15
w: in die- * * sem _|Hau- * se|wohn- te mein _|Schatz,|||sie hat schon|
 (G2 F2) z2 | z3/2 F/ F2 (DB,) | F2 F2 z2 | z F F2 ED | (C2 F2) z2 | F>F (!turn!F2 A>)G | F4 z2 | %22
w: längst _|die Stadt ver- *|las- sen,|doch steht noch das|Haus _|auf dem- sel- * ben|Platz.|
 z6 | z6 | z3/2 D/ D2 DE | F4 z2 | z F (FB) B>B | B2 ^A2 z2 | z d d3 d | d2 c2 z2 | z f f4- | %31
w: ||Da steht auch ein|Mensch,|und starrt _ in die|Hö- he,|und ringt die|Hän- de|vor Schmer-|
 f2 F>F F2- | F4 z2 | z2 (D3 E) | G2 F2 z2 | z3/2 F/ FF B>B | B2 ^A2 z2 | z3/2 d/ d3 e | c4 cc | %39
w: * zens- ge- walt|_|mir _|graut es,|wenn ich mein Ant- litz|se- he,|der Mond zeigt|mir mei- ne|
 f4 ff | g6- | g2 z2 z2 | z F F3 F | F2 F2 z2 | z F F2 FF | A2 F2 z F | F3 ^E F^G | ^A>B A2 z ^^C | %48
w: eig- ne Ge-|stalt.|_|Du Dop- pel-|gän- ger,|du blei- cher Ge-|sel- le! was|äffst du nach mein|Lie- bes- leid, das|
 ^D>^E FE F^G | B2 ^A2 z2 | z2 z2 B2 | f4- fe | =d4 d2 | (c4 dc | e3 d) c2 | B4 z2 | z6 | z6 | z6 | %59
w: mich ge- quält auf die- ser|Stel- le|so|man- * che|Nacht, in|al- * *|* * ter|Zeit?||||
 z6 | z6 | z6 | z6 |] %63
w: ||||
V:2
!pp! ([F,B,]6 | [F,^A,]6 | [F,D]6 | [F,C]6) | ([F,B,]6 | [F,^A,]6 | [F,D]6 | [F,C]6) | ([F,B,]6 | %9
 (=A,4) F,2) | ([D,F,A,]6 |!>(! [C,E,F,^A,]6)!>)! | F4- (F3/2=A/4G/4) | [A,EF]6 | ([F,B,]6 | %15
 [F,^A,]6 | [F,D]6 | [F,C]6) | ([F,B,]6 | ([F,=A,]4) F,2) | ([D,F,A,]6 |!>(! [C,E,F,^A,]6)!>)! | %22
 F4- (F3/2A/4G/4) | [A,EF]6 |!>(! [F,B,]6!>)! |!>(! [F,^A,]6!>)! |"^cresc. poco a poco" [F,D]6 | %27
!>(! [F,C]6!>)! | [F,B,]6 | ([F,=A,]4 F,2) |!fff! [D,F,A,]6 |!ff! [=C,E,F,^A,]6- | %32
"^decresc." [C,E,F,A,]6 |!p! [B,,F,B,]6 |!>(! [F,^A,]6!>)! | %35
"^cresc _ _ _ _ _ _ _ _ _ _ _ _ _ _ _ _" [F,D]6 | [F,C]6 | [F,B,]6 | ([F,=A,]4 F,2) | %39
!ff!!>(! [D,F,A,]6!>)! |!fff!!>(! ([=C,E,=G,-^A,]6!>)! | (G,4) F,2) |!p!!>(! [D,F,B,]6!>)! | %43
 [F,=C]6 | [F,^C]6 | [F,D]6 |!ff! [F,^A,^D]6 |!ff! [^E,^A,^^C]6 | [F,^A,^D]6 | [^E,^A,^^C]6 | %50
!ff! [^E,B,=D]6 |!fff! [F,B,D]6- | [F,B,D]6 | ([E,-G,B,C-]6 | [E,F,^A,C]6) | ([D,F,B,]6 | %56
 [F,^A,]6 | [F,D]6 | [E,G,=C]6) | ([^D,F,=A,B,-]6 | [E,G,B,]6) | [^D,F,B,]6- | %62
 !fermata![D,F,B,]6 |] %63
V:3
 [B,,,F,,B,,]6 | [^A,,,F,,^A,,]6 | [D,,F,,D,]6 | [C,,F,,C,]6 | [B,,,F,,B,,]6 | [^A,,,F,,^A,,]6 | %6
 [D,,F,,D,]6 | [C,,F,,C,]6 | [B,,,F,,B,,]6 | [A,,,F,,A,,]4 F,,2 | [D,,F,,A,,]6 | [C,,-F,,^A,,]6 | %12
 [C,,-F,,A,,]6 | [C,,F,,A,,]6 | [B,,,F,,B,,]6 | [^A,,,F,,^A,,]6 | [D,,F,,D,]6 | [C,,F,,C,]6 | %18
 [B,,,F,,B,,]6 | [=A,,,F,,=A,,]4 F,,2 | [D,,F,,A,,]6 | [C,,F,,^A,,]6- | [C,,F,,A,,]6- | %23
 [C,,F,,A,,]6 | [B,,,F,,B,,]6 | [^A,,,F,,^A,,]6 | [D,,F,,D,]6 | [C,,F,,C,]6 | [B,,,F,,B,,]6 | %29
 [=A,,,F,,=A,,]4 F,,2 |!>(! [D,,F,,A,,]6!>)! |!>(! [=C,,F,,^A,,]6-!>)! | [C,,F,,A,,]6 | %33
!>(! [B,,,F,,B,,]6!>)! | [^A,,,F,,^A,,]6 | [D,,F,,D,]6 | [C,,F,,C,]6 | [B,,,F,,B,,]6 | %38
 [=A,,,F,,=A,,]4 F,,2 | [D,,F,,A,,]6 | [=C,,=G,,-^A,,]6 |"^decresc." G,,4 F,,2 | %42
"^accel." [B,,,F,,B,,]6 |!>(! [=C,,F,,=C,]6!>)! |"^cresc."!>(! [^C,,F,,^C,]6!>)! | %45
!>(! [D,,F,,D,]6!>)! |!>(! [^D,,^A,,^D,]6!>)! |!>(! [^A,,,^A,,]6!>)! |!>(! [^D,,^A,,^D,]6!>)! | %49
!>(! [^A,,,^A,,]6!>)! |!>(! [=G,,,=G,,]6!>)! |!>(! [F,,,F,,]6-!>)! | [F,,,F,,]6 |!p! [F,,,F,,]6 | %54
 [F,,,F,,]6 |!pp! [B,,,F,,B,,]6 | [^C,,F,,^A,,]6 | [D,,F,,D,]6 | [=C,,G,,=C,]6 |!ppp! [B,,,B,,]6- | %60
 [B,,,B,,]6 | [B,,,B,,]6- | !fermata![B,,,B,,]6 |] %63
V:4
 x6 | x6 | x6 | x6 | x6 | x6 | x6 | x6 | x6 | F,6 | x6 | x6 | [^A,E]6- | x6 | x6 | x6 | x6 | x6 | %18
 x6 | x6 | x6 | x6 | [^A,E]6- | x6 | x6 | x6 | x6 | x6 | x6 | x6 | x6 | x6 | x6 | x6 | x6 | x6 | %36
 x6 | x6 | x6 | x6 | x6 | [C,E,A,]6 | x6 | x6 | x6 | x6 | x6 | x6 | x6 | x6 | x6 | x6 | x6 | x6 | %54
 x6 | x6 | x6 | x6 | x6 | x6 | x6 | x6 | x6 |] %63
V:5
 x6 | x6 | x6 | x6 | x6 | x6 | x6 | x6 | x6 | x6 | x6 | x6 | x6 | x6 | x6 | x6 | x6 | x6 | x6 | %19
 x6 | x6 | x6 | x6 | x6 | x6 | x6 | x6 | x6 | x6 | x6 | x6 | x6 | x6 | x6 | x6 | x6 | x6 | x6 | %38
 x6 | x6 | x6 | [C,,A,,]6 | x6 | x6 | x6 | x6 | x6 | x6 | x6 | x6 | x6 | x6 | x6 | x6 | x6 | x6 | %56
 x6 | x6 | x6 | x6 | x6 | x6 | x6 |] %63

